public/icon/svg/Ikuai.svg

<?xml version="1.0" encoding="UTF-8"?>
<svg width="1024px" height="1024px" viewBox="0 0 1024 1024" version="1.1" xmlns="http://www.w3.org/2000/svg" xmlns:xlink="http://www.w3.org/1999/xlink">
    <title>Ikuai</title>
    <g id="ICON-新版方图标" stroke="none" stroke-width="1" fill="none" fill-rule="evenodd">
        <g id="Ikuai">
            <rect id="蒙版路径" fill="#0188CC" x="0" y="0" width="1024" height="1024"></rect>
            <rect id="矩形" fill="#FFFFFF" fill-rule="nonzero" x="137" y="382.588697" width="48.2731554" height="40.6200942"></rect>
            <path d="M185.273155,605.704867 L185.273155,440.281005 L137,440.281005 L137,641.026688 L143.475667,641.026688 C161.136578,641.026688 181.152276,628.66405 185.273155,605.704867 Z" id="路径" fill="#FFFFFF" fill-rule="nonzero"></path>
            <path d="M254.739403,595.10832 L254.739403,382 L206.466248,382 L206.466248,641.026688 L212.941915,641.026688 C230.602826,641.026688 250.618524,624.543171 254.739403,595.10832 Z" id="路径" fill="#FFFFFF" fill-rule="nonzero"></path>
            <polygon id="路径" fill="#FFFFFF" fill-rule="nonzero" points="367.180534 641.026688 428.405024 641.026688 315.963893 506.215071 419.574568 382 358.350078 382 285.351648 469.715856 254.739403 506.215071 285.351648 542.714286"></polygon>
            <path d="M566.748823,462.651491 L566.748823,611.00314 L476.678179,611.00314 L476.678179,462.651491 L440.178964,462.651491 L440.178964,607.470958 C443.711146,629.252747 458.428571,641.026688 471.379906,641.026688 L476.678179,641.026688 L476.678179,641.026688 L567.33752,641.026688 L595.594976,641.026688 L603.836735,641.026688 L603.836735,462.651491 L566.748823,462.651491 Z" id="路径" fill="#FFFFFF" fill-rule="nonzero"></path>
            <path d="M818.122449,559.786499 L818.122449,559.786499 L818.122449,522.10989 L818.122449,522.10989 L818.122449,497.973312 L818.122449,497.973312 L818.122449,492.675039 C818.122449,479.135008 805.759812,463.240188 783.389325,460.296703 L623.852433,460.296703 L623.852433,497.973312 L788.098901,497.973312 L788.098901,522.10989 L658.585557,522.10989 C635.626374,525.642072 623.852433,540.948195 623.852433,554.488226 L623.852433,559.786499 L623.852433,559.786499 L623.852433,599.817896 L623.852433,599.817896 L623.852433,605.11617 L623.852433,605.11617 L623.852433,605.704867 L623.852433,605.704867 C624.44113,619.244898 636.215071,634.55102 657.99686,637.494505 L818.122449,637.494505 L818.122449,599.817896 L818.122449,599.817896 L818.122449,559.786499 Z M654.464678,599.817896 L654.464678,559.786499 L787.510204,559.786499 L787.510204,599.817896 L654.464678,599.817896 Z" id="形状" fill="#FFFFFF" fill-rule="nonzero"></path>
            <rect id="矩形" fill="#FFFFFF" fill-rule="nonzero" x="838.138148" y="383.177394" width="48.2731554" height="40.6200942"></rect>
            <path d="M887,605.704867 L887,440.281005 L838.726845,440.281005 L838.726845,641.026688 L845.202512,641.026688 C862.863422,641.026688 882.290424,628.66405 887,605.704867 Z" id="路径" fill="#FFFFFF" fill-rule="nonzero"></path>
            <rect id="矩形" fill="#FFFFFF" fill-rule="nonzero" x="137" y="382.588697" width="48.2731554" height="40.6200942"></rect>
            <path d="M185.273155,605.704867 L185.273155,440.281005 L137,440.281005 L137,641.026688 L143.475667,641.026688 C161.136578,641.026688 181.152276,628.66405 185.273155,605.704867 Z" id="路径" fill="#FFFFFF" fill-rule="nonzero"></path>
            <path d="M254.739403,595.10832 L254.739403,382 L206.466248,382 L206.466248,641.026688 L212.941915,641.026688 C230.602826,641.026688 250.618524,624.543171 254.739403,595.10832 Z" id="路径" fill="#FFFFFF" fill-rule="nonzero"></path>
            <polygon id="路径" fill="#FFFFFF" fill-rule="nonzero" points="367.180534 641.026688 428.405024 641.026688 315.963893 506.215071 419.574568 382 358.350078 382 285.351648 469.715856 254.739403 506.215071 285.351648 542.714286"></polygon>
            <path d="M566.748823,462.651491 L566.748823,611.00314 L476.678179,611.00314 L476.678179,462.651491 L440.178964,462.651491 L440.178964,607.470958 C443.711146,629.252747 458.428571,641.026688 471.379906,641.026688 L476.678179,641.026688 L476.678179,641.026688 L567.33752,641.026688 L595.594976,641.026688 L603.836735,641.026688 L603.836735,462.651491 L566.748823,462.651491 Z" id="路径" fill="#FFFFFF" fill-rule="nonzero"></path>
            <path d="M818.122449,559.786499 L818.122449,559.786499 L818.122449,522.10989 L818.122449,522.10989 L818.122449,497.973312 L818.122449,497.973312 L818.122449,492.675039 C818.122449,479.135008 805.759812,463.240188 783.389325,460.296703 L623.852433,460.296703 L623.852433,497.973312 L788.098901,497.973312 L788.098901,522.10989 L658.585557,522.10989 C635.626374,525.642072 623.852433,540.948195 623.852433,554.488226 L623.852433,559.786499 L623.852433,559.786499 L623.852433,599.817896 L623.852433,599.817896 L623.852433,605.11617 L623.852433,605.11617 L623.852433,605.704867 L623.852433,605.704867 C624.44113,619.244898 636.215071,634.55102 657.99686,637.494505 L818.122449,637.494505 L818.122449,599.817896 L818.122449,599.817896 L818.122449,559.786499 Z M654.464678,599.817896 L654.464678,559.786499 L787.510204,559.786499 L787.510204,599.817896 L654.464678,599.817896 Z" id="形状" fill="#FFFFFF" fill-rule="nonzero"></path>
            <rect id="矩形" fill="#FFFFFF" fill-rule="nonzero" x="838.138148" y="383.177394" width="48.2731554" height="40.6200942"></rect>
            <path d="M887,605.704867 L887,440.281005 L838.726845,440.281005 L838.726845,641.026688 L845.202512,641.026688 C862.863422,641.026688 882.290424,628.66405 887,605.704867 Z" id="路径" fill="#FFFFFF" fill-rule="nonzero"></path>
        </g>
    </g>
</svg>

<svg xmlns="http://www.w3.org/2000/svg" width="1024" height="1024"><g fill="none" fill-rule="evenodd"><path fill="#0188CC" d="M0 0h1024v1024H0z"/><path fill="#FFF" fill-rule="nonzero" d="M137 382.589h48.273v40.62H137zM185.273 605.705V440.28H137v200.746h6.476c17.66 0 37.676-12.363 41.797-35.322M254.74 595.108V382h-48.274v259.027h6.476c17.66 0 37.677-16.484 41.797-45.919"/><path fill="#FFF" fill-rule="nonzero" d="M367.18 641.027h61.225L315.964 506.215 419.574 382H358.35l-72.998 87.716-30.613 36.5 30.613 36.498zM566.749 462.651v148.352h-90.07V462.651h-36.5v144.82c3.532 21.782 18.25 33.556 31.2 33.556h132.458V462.65h-37.088M818.122 559.786v-67.111c0-13.54-12.362-29.435-34.733-32.378H623.852v37.676H788.1v24.137H658.586c-22.96 3.532-34.734 18.838-34.734 32.378v51.217c.59 13.54 12.363 28.846 34.145 31.79h160.125v-77.709m-163.657 40.032v-40.032H787.51v40.032H654.465M838.138 383.177h48.273v40.62h-48.273zM887 605.705V440.28h-48.273v200.746h6.476c17.66 0 37.087-12.363 41.797-35.322M137 382.589h48.273v40.62H137zM185.273 605.705V440.28H137v200.746h6.476c17.66 0 37.676-12.363 41.797-35.322"/><path fill="#FFF" fill-rule="nonzero" d="M254.74 595.108V382h-48.274v259.027h6.476c17.66 0 37.677-16.484 41.797-45.919"/><path fill="#FFF" fill-rule="nonzero" d="M367.18 641.027h61.225L315.964 506.215 419.574 382H358.35l-72.998 87.716-30.613 36.5 30.613 36.498zM566.749 462.651v148.352h-90.07V462.651h-36.5v144.82c3.532 21.782 18.25 33.556 31.2 33.556h132.458V462.65h-37.088M818.122 559.786v-67.111c0-13.54-12.362-29.435-34.733-32.378H623.852v37.676H788.1v24.137H658.586c-22.96 3.532-34.734 18.838-34.734 32.378v51.217c.59 13.54 12.363 28.846 34.145 31.79h160.125v-77.709m-163.657 40.032v-40.032H787.51v40.032H654.465M838.138 383.177h48.273v40.62h-48.273zM887 605.705V440.28h-48.273v200.746h6.476c17.66 0 37.087-12.363 41.797-35.322"/></g></svg>
